X:1
T:Shostakovich Piano Concerto No.2 Orchestra Piano Reduction
T:Shostakovich Piano Concerto No.2 Orchestra Piano Reduction
%%score { 1 | ( 2 3 ) } { ( 4 7 ) | ( 5 6 ) }
L:1/8
Q:1/4=160
M:4/4
K:F
V:1 treble nm="Piano 1" snm="Pno.1"
V:2 bass 
V:3 bass 
V:4 treble nm="Piano 2" snm="Pno.2"
V:7 treble 
V:5 bass 
V:6 bass 
V:1
 z8 | z8 | z8 | z8 | z8 | z8 |"^1"!p! a2 f2 d2 e2 | f6 a2 | c'2 a2 c'2 d'2 | %9
 (!>!_e'2- e'/d'/c'/=b/ .c') z c'2 | g'2 ^f'>=f' =e'2 c'2 | f'2 e'>_e' d'2 c'2 | b2 a2 g2 _e'>_d' | %13
 c'2 _a2 _d'2 c'>b |"^2" =a2 f2 d2 e2 | f6 a2 | c'2 a2 c'2 d'2 | %17
 (!>!_e'2- e'/d'/c'/=b/ .c') z c' z | f2 ^f>g _a2 c'2 | ^f2 g>^g =a2 d'2 | ^c'2 d'2 _e'2 d'>=e' | %21
 f'2 a'2 f'2!f! C/D/E/F/ |"^3" x4 z4 | z8 | z4 _e/d/c/=B/ cc | gf/g/ _ag f_e =d/e/f/^f/ | %26
 g[Gg]/[I:staff +1]_A/[I:staff -1] [Gg][Gg]/[I:staff +1]A/[I:staff -1] [Gg]=egc' | %27
 g[Gg]/[I:staff +1]_A/[I:staff -1] [Gg][Gg]/[I:staff +1]A/[I:staff -1] [Gg]e g/=a/_b/c'/ | %28
 ^c'a e'2 c'a =f2 | bg/b/ _d'c' bg _e/=e/f/^f/ | %30
"^4" g[Gg]/[I:staff +1]_A/[I:staff -1] [Gg][Gg]/[I:staff +1]A/[I:staff -1] [Gg]egc' | %31
 g[Gg]/[I:staff +1]_A/[I:staff -1] [Gg][Gg]/[I:staff +1]A/[I:staff -1] [Gg]egc' | %32
 g=a/=b/ c'd' _e'/d'/c'/b/ c'd' |!8va(! _e'f'/g'/ _a'_b' _c''/b'/a'/g'/ a'[_c'c'']!8va)! | %34
!8va(! [_e'_e''][e'e'']/[e'e'']/ [_f'_f''][f'f'']/[f'f'']/ [e'e''][_c'_c'']/[bb']/ [c'c'']/[_d'_d'']/[e'e'']/[f'f'']/!8va)! | %35
!8va(! [_g'_g''][g'g'']/[g'g'']/ [_a'_a''][a'a'']/[a'a'']/ [g'g''][g'g'']/_d''/ g''/f''/g''/a''/!8va)! | %36
"^5"!ff!!8va(! a'' z d''/e''/f''/g''/ a'' z g'' z | f'' z e''/d''/e''/f''/ g'' z c''/b'/a'/g'/ | %38
 f'c'/f'/ d'/c'/d'/e'/ f'c'/f'/ g'/a'/b'/c''/ | d''c''d''e'' f'' z c''/b'/a'/g'/ | %40
 [ac'f']2 [fbd']2 [_egb]2 [e_ac']2 | [f_a_d']6 [_gd'_e']>[ad'f'] | %42
 [b_d'_g']2 [f_ac']>[fb_d'] [fc'_e']2 [=gb=d']>[gb=e'] | %43
 [=ac'f'][c'f'a'][f'a'c''][c'f'a'] [ac'f']g'/a'/ b'c'' | %44
 [f'_a'_d'']2 [_d'_g'b']2 [=b^d'^f']2 [b=e'^g']2 | [^c'e'a']6 [f'a'_b']>[f'a'=b'] | %46
 [f'a'c'']z/d''/ _e''z/f''/ _g'' z [=e'=a'=c''] z | %47
 [_g'_g''] z [=c'=c''] z [f'f''] z!p! d'/e'/f'/=g'/!8va)! |"^6"!8va(! a'3!p! f' b'a'g'f' | %49
 g'2 e'g' c''_d''c''b' | a'3 f' b'a'g'f' | e'd'^c'd' e'2 a2 | a'3 f' b'a'g'f' | %53
 g'2 e'g' c''_d''c''b' | a'3 f' a'2 f'a' | b'2 a'b' =b'2 g'2!8va)! |"^7"!8va(! d'2 e'f' e'f'g'a' | %57
 b'2 a'b' =b'2 g'2 | d''2 ^c''d'' _e''2 _a'=c'' | _e''2 _a'c'' e''2 d''c'' | b'3 g' d'=e'f'g' | %61
"^8" a'3 f' b'a'g'f' | g'2 e'g' c''_d''c''b' | a'3 f' b'a'g'f' | e'd'^c'd' e'2 a2 | %65
 f'2 e'2 d'2 =c'2!8va)! | b2 a2 g2 f2 | _e2 g2 b2 _Ac | _e2 g2 b2 gc' | _e'3 f' _g'f'e'd' | %70
 _e'c'=gc' e'2 e'2 | _e'c'gc' e'2 d'c' | b2 g2 d2 d'b |"^9" a3 d bagf | e2 a2 d4 | e4 A2 a2 | %76
 f2 d2 B4 | f2 d2 B4 |!pp! e4 A2 a2 | ^f2 d2 A4 | ^f2 d2 A4- | A6 A>A | A6 A>A | %83
 A2 [DFA]>[DFA] [DGB] z z2 | z2 [DFA]>[DFA] [DGB] z z2 | z2 .[DFA] z z2 .[DGB] z | %86
 z2 .[DFA] z z2 .[DGB] z |[K:C]"^10" z2[K:bass]!ff! [B,,B,][D,D] [^F,^F][D,D][F,F][B,B] | %88
 [^F,^F][D,D][_E,_E][C,C] [F,F][D,D][E,E][C,C] | z2 [B,,B,][D,D] [^F,^F][D,D][F,F][B,B] | %90
 [^F,^F][D,D][_E,_E][C,C] [F,F][D,D][E,E][C,C] | z2 [B,,B,][D,D] [_E,_E][C,C][E,E][G,G] | %92
 [^F,^F][D,D][G,G][_E,_E] [F,F][D,D][G,G][E,E] | [^F,^F][D,D][G,G][_E,_E] [F,F][D,D][E,E][C,C] | %94
 [D,D][B,,B,][_E,_E][C,C] [=E,=E][^C,^C][A,A][^F,^F] | z2 [B,,B,][D,D] [_E,_E][=C,=C][E,E][G,G] | %96
 [^F,^F][D,D][G,G][_E,_E] [F,F][D,D][G,G][E,E] | %97
[K:treble] [A,A][^F,^F][_B,_B][G,G] [A,A][F,F][G,G][_E,_E] | %98
 [Cc][A,A][^C^c][^A,^A] [Dd][=B,=B][_E_e][=C=c] | %99
"^11" [=E=e][B,B][Cc][Dd] [^D^d][^G^g][=G=g][=F=f] | [Ee][B,B][Cc][=D=d] [^D^d][^G^g][=G=g][Ff] | %101
 [E^Ge]e/^d/ e/^f/^g/a/ bg/^^f/ g/a/b/=c'/ | _d'/c'/_b/a/ bb/d'/ f'd'/f'/!8va(! _a'f'/a'/ | %103
 =b'[bb']/[bb']/ [bb'][bb']/[bb']/ [bb'][^g^g'][bb'][e'e''] | %104
 [bb'][bb']/[bb']/ [bb'][bb']/[bb']/ [bb'][^g^g'][bb'][e'e''] | %105
 [_e'_e'']!8va)!d/_e/ f/g/_a/_b/ c'a/b/ c'/d'/_e'/f'/ | %106
!8va(! ^f'f'/f'/ f'/^d'/f'/b'/ f'_g'/a'/ ^a'/b'/c''/^c''/ | %107
 =d''b'/d''/ g''b'/d''/ ^f''g'/a'/ b'/=c''/d''/_e''/ | %108
"^12" d''g'/4^g'/4a'/4^a'/4 [bb'][=g=g'] [bb'][gg'][bb'][gg'] | %109
 [dd']=g'/4^g'/4=a'/4^a'/4 [bb'][=g=g'] [bb'][gg'][bb'][gg'] | %110
 [dd'][^c^c'][cc'][gg'] [gg'][_g_g'][gg'][ff'] | [ff'][ee'][ee'][aa'] [=a=a'][_a_a'][aa'][gg'] | %112
 [dd']g'/4^g'/4a'/4^a'/4 [bb'][=g=g'] [bb'][gg'][bb'][gg'] | %113
 [dd']=g'/4^g'/4=a'/4^a'/4 [bb'][=g=g'] [bb'][gg'][bb'][gg'] | %114
 [dd'][d''b'']/[I:staff +1][d'b']/[I:staff -1] [_d''_b'']/[I:staff +1][_d'_b']/[I:staff -1][c''a'']/[I:staff +1][c'a']/[I:staff -1] [=b'^g'']/[I:staff +1][b^g']/[I:staff -1][_b'=g'']/[I:staff +1][_b=g']/[I:staff -1] [a'^f'']/[I:staff +1][a^f']/[I:staff -1][_a'=f'']/[I:staff +1][_a=f']/ | %115
[I:staff -1] [g'e'']/[I:staff +1][ge']/[I:staff -1][_a'f'']/[I:staff +1][_af']/[I:staff -1] [g'e'']/[I:staff +1][ge']/[I:staff -1][_g'_e'']/[I:staff +1][_g_e']/[I:staff -1] [f'd'']/[I:staff +1][fd']/[I:staff -1][=e'_d'']/[I:staff +1][=e_d']/[I:staff -1] [_e'c'']/[I:staff +1][_ec']/[I:staff -1][_g'_c'']/[I:staff +1][_g_c']/ | %116
"^13"[I:staff -1] [f'_b'](3d''/_e''/=e''/ [f'f''][d'd''] [f'f''][d'd''][f'f''][d'd''] | %117
 [_b_b'](3d''/_e''/=e''/ [f'f''][d'd''] [f'f''][d'd''][f'f''][d'd''] | %118
 [_b_b'](3d''/_e''/=e''/ [f'f''][d'd''] [f'f''][d'd''][f'f''][d'd''] | %119
 [e'e''][=b=b'][f'f''][d'd''] [f'f''][d'd''][e'e''][bb'] | %120
 [^g^g'][ee'][_b_b'][ff'] [bb'][ff'][gg'][ee'] | [^g^g'][ee'][gg'][ee'] [gg'][ee'] g'/a'/_b'/=b'/ | %122
 [c'c''][_a_a'][c'c''][aa'] [c'c''][aa'] c''/d''/_e''/f''/ | %123
 [^f'^f''][f'f'']/[f'f'']/ [f'f''][f'f'']/[f'f'']/ [f'f''][g'g'']/[I:staff +1]g/[I:staff -1] [f'f'']/[I:staff +1]^f/[I:staff -1][e'e'']/[I:staff +1]e/ | %124
[I:staff -1] [^d'^d'']/[I:staff +1]^d/[I:staff -1][e'e'']/[I:staff +1]e/[I:staff -1] [d'd'']/[I:staff +1]d/[I:staff -1][^c'^c'']/[I:staff +1]^c/[I:staff -1] [=c'=c'']/[I:staff +1]=c/[I:staff -1][aa']/[I:staff +1]A/[I:staff -1] [bb']/[I:staff +1]B/[I:staff -1][c'c'']/[I:staff +1]c/ | %125
[I:staff -1] [^c'^c''][^a^a'] [^f^f']2 [dd']2!8va)! [Bb]2 | [=G=g]2 [Ee]2 [=C=c]2 [A,A]2 | %127
[K:bass] [^F,^F]2 [^D,^D]2 [B,,B,]2 E,,!p!E,,/^F,,/ | %128
"^14" G,,/E,,/^F,,/G,,/ _A,,/=F,,/G,,/A,,/ _B,,/G,,/A,,/B,,/ =B,,/^G,,/^A,,/B,,/ | %129
 =C,/A,,/B,,/C,/ ^C,/D,/^D,/E,/ F,/=D,/E,/F,/ ^F,/G,/^G,/A,/ | %130
 ^A,/B,/C/^C/[K:treble] D/^C/D/_E/ D/C/D/=F/ D/E/F/G/ | %131
 _A/F/G/A/ =A/B/^c/d/ =e/f/g/a/ _b/a/b/=c'/ | %132
"^15" ^c'!ff!(3c'/d'/^d'/ [ee'][^cc'] [ee'][cc'][ee'][cc'] | %133
 [Aa](3^c'/=d'/^d'/ [ee'][^cc'] [ee'][cc'][ee'][cc'] | %134
 [Aa]A,/^A,/ B,/^B,/^C/D/ ^D/E/F/^F/ G/^G/A/_B/ | %135
 _c/_B/d/f/ d/f/g/a/ _b/c'/^c'/d'/ ^d'/e'/f'/^f'/ | g'(3e/=f/^f/ [Gg][Ee] [Gg][Ee][Gg][Ee] | %137
 [Cc](3e/=f/^f/ [Gg][Ee] [Gg][Ee][Gg][Ee] | [Gg][Ee][Gg][Ee] [Gg][Ee][_B_b][_G_g] | %139
 [_B_b][_G_g][_D_d][_B,_B][K:bass] [_G,_G][_D,_D] [=D,=D]>[=E,=E] | %140
 [F,F]2 [^F,^F]2 [G,G]2[K:treble] [G,G]>[_B,_B] | [Dd]2 [^D^d]2 [Ee][=F=f] [^F^f]>[Gg] | %142
"^16" [^G^g]=f/=g/ ^g/=g/^g/^a/ bf/=g/ ^g/=g/^g/a/ | bc/^c/ d/^d/e/f/ _g/f/e/f/ g/=g/_a/=a/ | %144
 _bb/_c'/ _d'/c'/d'/=d'/ _e'b/c'/ _d'/c'/d'/=d'/ | %145
 _e'_e/=e/ f/^f/=g/_a/ =a/_b/=b/c'/ ^c'/d'/_e'/=e'/ | f'[F_Bf] z [_G_c_g] z [FBf] z [Gcg] | %147
 z [F_Bf] z [_G_c_g] z [FBf] z [Gcg] | z [F_Bf] z [_G_c_g] z [FBf] z [Gcg] | %149
 z [F_Bf] z [_G_c_g] z [FBf] z [Gcg] | %150
 z[K:bass] F,/_G,/ _A,/_B,/=C/D/[K:treble] _E/D/E/F/ _G/F/_A/F/ | %151
 z F/_G/ _A/_B/c/d/ _e/d/e/f/ _g/f/_a/f/ | c'/_b/_a/=g/ b/a/g/f/ _e/d/c/_B/ _A/G/F/_E/ | %153
 c/_B/_A/G/ B/A/G/F/ _E/D/C/_B,/[K:bass] _A,/G,/F,/_E,/ |"^17" z8 | z8 | x4 x2 A,/B,/C/D/ | %157
 x4 x2[K:treble] _A/_B/c/^c/ | d x x2 x4 | z8 | z8 | z8 | %162
[I:staff +1] [_B,_EG_B]/!8va(![I:staff -1][_b_e'g'_b']/[I:staff +1][B_egb]/[I:staff -1][be'g'b']/[I:staff +1] [Beg]/[I:staff -1][be'g']/[I:staff +1][Befa]/[I:staff -1][be'f'a']/[I:staff +1] [Begb]/[I:staff -1][be'g'b']/[I:staff +1][Begb]/[I:staff -1][be'g'b']/[I:staff +1] [gc'_e']/[I:staff -1][_e'g'c''_e'']/[I:staff +1][gc'e']/[I:staff -1][e'g'c''e'']/ | %163
[I:staff +1] [_B_eg_b]/[I:staff -1][b_e'g'_b']/[I:staff +1][Begb]/[I:staff -1][be'g'b']/[I:staff +1] [Beg]/[I:staff -1][be'g']/[I:staff +1][Befa]/[I:staff -1][be'f'a']/[I:staff +1] [Begb]/[I:staff -1][be'g'b']/[I:staff +1][Begb]/[I:staff -1][be'g'b']/[I:staff +1] [gc'_e']/[I:staff -1][_e'g'c''_e'']/[I:staff +1][gc'e']/[I:staff -1][e'g'c''e'']/ | %164
[I:staff +1] [_B_eg_b]/[I:staff -1][_b_e'g'_b']/[I:staff +1][Begb]/[I:staff -1][be'g'b']/[I:staff +1] [egc'_e']/[I:staff -1][e'g'c''_e'']/[I:staff +1][egc'e']/[I:staff -1][e'g'c''e'']/[I:staff +1] [Begb]/[I:staff -1][be'g'b']/[I:staff +1][Begb]/[I:staff -1][be'g'b']/[I:staff +1] [egc'e']/[I:staff -1][e'g'c''e'']/[I:staff +1][egc'e']/[I:staff -1][e'g'c''e'']/ | %165
[I:staff +1] [_B_eg_b]/[I:staff -1][_b_e'g'_b']/[I:staff +1][Begb]/[I:staff -1][be'g'b']/[I:staff +1] [egc'_e']/[I:staff -1][e'g'c''_e'']/[I:staff +1][egc'e']/[I:staff -1][e'g'c''e'']/[I:staff +1] [Begb]/[I:staff -1][be'g'b']/[I:staff +1][Begb]/[I:staff -1][be'g'b']/[I:staff +1] [egc'e']/[I:staff -1][e'g'c''e'']/[I:staff +1][egc'e']/[I:staff -1][e'g'c''e'']/!8va)! | %166
 [^cg_b] z[K:bass] !>![D,D]4 !>![_D,_D]2- | [D,D]2 !>![C,C]2 !>![=B,,=B,]2 !>![_B,,_B,]2 | %168
 !>![A,,A,]2[K:treble]!8va(! (3[aa'][aa'][aa'] (3[aa'][^g^g'][aa'] (3[aa'][_b_b'][aa'] | %169
 (3[aa'][^g^g'][aa'] (3[aa'][_b_b'][aa'] (3[aa'][gg'][aa'] (3[aa'][c'c''][aa'] | %170
 z2 (3[aa'][aa'][aa'] (3[aa'][_b_b'][aa'] (3[aa'][aa'][aa'] | %171
 (3[aa'][_b_b'][aa'] (3[aa'][aa'][aa'] (3[aa'][bb'][aa'] (3[aa'][c'c''][aa']!8va)! | %172
"^18" [d^fa]2 d/4A/4^F/4D/4[I:staff +1]A,/4^F,/4D,/4A,,/4[I:staff -1][K:bass]!8vb(! D,,,2!8vb)![I:staff +1] (6:4:6_B,,,/_B,,/[I:staff -1]=F,/_B,/D/=F/ | %173
[I:staff +1] (6:4:6_E,,,/_E,,/[I:staff -1]G,/_B,/_E/G/[I:staff +1] (6:4:6F,,,/F,,/[I:staff -1][K:treble]A,/C/F/A/[I:staff +1] (6:4:6G,,,/G,,/[I:staff -1]=B,/D/G/=B/[I:staff +1] (6:4:6_B,,,/_B,,/[I:staff -1]_B,/D/F/_B/ | %174
[K:bass] [=E,C=E]2 (7:4:7G/E/C/G,/[I:staff +1]E,/G,,/C,,/!8vb(![I:staff -1] C,,,2!8vb)![I:staff +1] (6:4:6C,,/C,/[I:staff -1]E,/G,/C/E/ | %175
[I:staff +1] (6:4:6_A,,,/_A,,/[I:staff -1]_E,/_A,/C/_E/[I:staff +1] (6:4:6_G,,,/_G,,/[I:staff -1]_D,/_G,/_B,/_D/[I:staff +1] (6:4:6A,,,/A,,/[I:staff -1]E,/A,/C/E/[I:staff +1] (6:4:6_B,,,/_B,,/[I:staff -1]F,/_B,/=D/F/ | %176
 [^F,D^F]2[K:treble] d/4A/4^F/4D/4[I:staff +1]A,/4^F,/4D,/4A,,/4[I:staff -1][K:bass]!8vb(! D,,,2!8vb)! (6:4:6_B,,,/_B,,/=F,/_B,/D/=F/ | %177
[I:staff +1] (6:4:6_E,,,/_E,,/[I:staff -1]G,/_B,/_E/G/[I:staff +1] (6:4:6F,,,/F,,/[I:staff -1][K:treble]A,/C/F/A/[I:staff +1] (6:4:6G,,,/G,,/[I:staff -1]=B,/D/G/=B/[I:staff +1] (6:4:6_B,,,/_B,,/[I:staff -1]_B,/D/F/_B/ | %178
[I:staff +1] (6:4:6C,,/G,,/=E,/[I:staff -1]C/E/G/ (6:4:6c/G/E/C/[I:staff +1]E,/G,,/ (7:4:7^C,,/^G,,/^E,/[I:staff -1]^C/^E/^G/^c/[I:staff +1] (6:4:6_B,,,/_B,,/[I:staff -1]^G,/=D/=E/^G/ | %179
[I:staff +1] (6:4:6A,,,/A,,/[I:staff -1]A,/^C/E/A/[I:staff +1] (6:4:6_E,,,/_E,,/[I:staff -1]G,/_B,/_E/G/[I:staff +1] (6:4:6F,,,/F,,/[I:staff -1]A,/=C/F/A/[I:staff +1] (6:4:6G,,,/G,,/[I:staff -1]=B,/D/G/=B/ | %180
[I:staff +1] (6:4:6_B,,,/F,,/D,/[I:staff -1][K:bass]F,/_B,/D/ (6:4:6F/D/B,/F,/[I:staff +1]D,/F,,/ (7:4:7A,,,/E,,/^C,/[I:staff -1]E,/A,/^C/E/[I:staff +1] (6:4:6=C,,/G,,/[I:staff -1]E,/_B,/=C/E/ | %181
[I:staff +1] (6:4:6F,,/C,/F,/[I:staff -1]A,/C/F/ (6:4:6A/F/C/A,/[I:staff +1]F,/C,/ (7:4:7F,,/C,/F,/[I:staff -1]A,/C/F/A/[I:staff +1] (7:4:7F,,/C,/F,/[I:staff -1]A,/C/F/A/ | %182
[K:treble][I:staff +1] (6:4:6_E,,/_B,,/G,/[I:staff -1]_B,/_E/G/ (6:4:6_B/G/E/B,/[I:staff +1]G,/B,,/ (7:4:7F,,/C,/F,/[I:staff -1]A,/C/F/A/[I:staff +1] (7:4:7E,,/B,,/G,/[I:staff -1]B,/E/G/B/ | %183
[I:staff +1] (6:4:6D,,/G,,/F,/[I:staff -1]=B,/F/G/ (6:4:6=B/G/F/B,/[I:staff +1]F,/G,,/ (7:4:7_E,,/_B,,/G,/[I:staff -1]_B,/_E/G/_B/[I:staff +1] (7:4:7D,,/G,,/F,/[I:staff -1]=B,/F/G/=B/ | %184
[K:bass]"^19" [G,_B,D] z7!mf! | z2!mf! ^C,C, D,C,E,C, | D,/E,/F,/G,/ _A,G, _B,G, A,/B,/=C/D/ | %187
[K:treble] _ED/E/ FE/F/ _GF/G/ _AG/A/ | =A/_B/c/d/ _ed/e/ fe/f/ _gf/g/ | .=g z ._e z .c z .d z | %190
 _e6 .g z | ._b z .g z .b z .c' z | _d'2- d'/c'/_b/_a/ b2- b/a/g/f/ | .g z ._e z .c z .=d z | %194
 _e6 .g z | .d' z ^c'z/=c'/ .b z .g z | .d' z ^c'z/=c'/ b z g z | .=f._e.d.e .f.e.g.e | %198
 (_a/g/f/_e/ .f).g (a/g/f/e/ ._d).c | ._B.=A.B.c .B.A.B.c | ._d.c.d._e ._f.e.d.c | %201
 ._d.c.d._e ._f.e.d.c | ._d._a.__b.a ._c'.a.b.a | ._d._a.__b.a ._c'.a.b.a | %204
 (_d/_e/f/_g/ ._a)._A .=a.=A =B/c/d/e/ | .f.d.=g.d ._a.d (=e/f/g/=a/) | %206
 z .[_B_b] z .[Bab] z .[Bgb] z .[Bab] | z .[c_bc'] z .[_db_d'] (!>!_e'/d'/c'/b/) z2 | %208
 z .[_B_b] z .[cbc'] z .[_db_d'] z .[=db=d'] | z .[_e_b_e'] z .[fbf'] (!>!_g'/f'/e'/d'/) z2 | %210
[K:bass] z .^C,,.D,,.C,, .E,,.C,, D,,/E,,/F,,/G,,/ | ._A,,.G,,._B,,.G,, .C,.G,, B,,/C,/_D,/_E,/ | %212
 ._F,._E, (F,/_G,/=G,/A,/ ._B,).A,.C.A, | z ._B,.C._D[K:treble] (!>!_E/D/C/_B,/) (!>!_F/E/D/C/) | %214
 z ._D._E._F (!>!_G/F/E/D/) (!>!=G/_G/=F/_F/) | ._B._E.A._F .B.E F/_G/=G/A/ | %216
 ._B._E.A._F .B.E F/_G/=G/A/ | ._B(A/B/ .c)(B/c/ ._d)(c/B/ .A)B/c/ | %218
 ._B(A/B/ .c)(B/c/ ._d)(c/B/ .A)B/c/ | ._d(c/d/ ._e)(d/e/ ._f)(e/d/ .c)_B/c/ | %220
 ._d(c/d/ ._e)(d/e/ ._f)(e/d/ .c)d/e/ | .=e(_e/=e/ .f)(e/f/ ._g)f/g/ =g/^f/g/^g/ || %222
[K:F]"^20" .a/!f!A,/C/F/ z/ A,/D/F/ G/F/E/D/ z/ A,/C/E/ | %223
 z/ A,/C/F/ z/ A,/D/F/ G/F/E/D/ z/ A,/C/E/ | z/ A,/C/F/ z/ A,/D/F/ z/ A,/C/F/ z/ A,/D/F/ | %225
 z/ A,/C/F/ z/ A,/D/F/ G/F/E/D/ z/ A,/C/E/ | z/ B,/_E/G/ B/A/B/=B/ z/ =E/A/c/ z/ C/E/A/ | %227
 z/ _D/F/B/ c/B/c/_d/ =d/A/F/=D/ z/ E/A/c/ | z/ D/A/B/ z/ D/A/c/ z/ D/B/_d/ z/ E/B/d/ | %229
 z/ F/B/c/ z/ F/B/_d/ z/ _G/B/_e/ z/ =E/A/=e/ | z/ F/A/c/ z/ A,/D/F/ G/F/E/D/ z/ A,/C/E/ | %231
 z/ A,/C/F/ z/ A,/D/F/ G/F/E/D/ z/ A,/C/E/ | z/ A,/C/F/ z/ A,/D/F/ z/ A,/C/F/ z/ A,/D/F/ | %233
 z/ A,/C/F/ z/ A,/D/F/ G/F/E/D/ z/ A,/C/E/ | z/ F/A/c/ z/ ^F/c/d/ _e/d/c/F/ z/ D/F/A/ | %235
 z/ _D/_G/B/ z/ =D/F/=B/ c/B/F/D/ z/ _G,/D/G/ | z/ G,/_E/G/ z/ C/G/B/ z/ C/F/B/ z/ ^C/^F/_B/ | %237
 z/ D/=F/A/ z/ A,/E/A/ z/ A,/C/E/ F/G/A/B/ |"^21" z8 | z8 | z2 fg _a/g/f/e/ ff | %241
 c'b/c'/ _d'c' b_a g/a/b/=b/ | %242
 c'[cc']/[I:staff +1]_d/[I:staff -1] [cc'][cc']/[I:staff +1]d/[I:staff -1] [cc']=ac'f' | %243
 c'[cc']/[I:staff +1]_d/[I:staff -1] [cc'][cc']/[I:staff +1]d/[I:staff -1] [cc']a c'/=d'/_e'/f'/ | %244
 ^f'd' a'2 f'd' b2 | _e'c'/e'/ _g'f' e'c' _a/=a/b/=b/ | %246
"^22" c'/a/d'/=e'/ f'/e'/d'/c'/ _b/a/g/f/ e/c/d/e/ | f/g/a/b/ c'/d'/c'/b/ a/g/f/e/ d/c/d/e/ | %248
 f/g/a/b/ c'[I:staff +1][cc']/!8va(![I:staff -1][d'd'']/[I:staff +1] [c'c'']/[I:staff -1][d'd'']/[I:staff +1][c'c'']/[I:staff -1][d'd'']/[I:staff +1] [c'c'']/[I:staff -1][d'd'']/[I:staff +1][c'c'']/[I:staff -1][d'd'']/ | %249
[I:staff +1] [c'c'']/[I:staff -1][d'd'']/[I:staff +1][c'c'']/[I:staff -1][d'd'']/[I:staff +1] [c'c'']/[I:staff -1][d'd'']/[I:staff +1][c'c'']/[I:staff -1][d'd'']/[I:staff +1] [c'c'']/[I:staff -1][d'd'']/[I:staff +1][c'c'']/[I:staff -1][d'd'']/[I:staff +1] [c'c'']/[I:staff -1][d'd'']/[I:staff +1][c'c'']/[I:staff -1][d'd'']/ | %250
 c''/a'/d''/e''/ f''/e''/d''/c''/ b'/a'/g'/f'/ e'/c'/d'/e'/ | %251
 f'/g'/a'/b'/ c''/d''/c''/b'/ a'/g'/f'/e'/ d'/c'/d'/e'/ | %252
 f'/g'/a'/b'/ c''[I:staff +1][c'c'']/[I:staff -1][d'd'']/[I:staff +1] [c'c'']/[I:staff -1][d'd'']/[I:staff +1][c'c'']/[I:staff -1][d'd'']/[I:staff +1] [c'c'']/[I:staff -1][d'd'']/[I:staff +1][c'c'']/[I:staff -1][d'd'']/ | %253
[I:staff +1] [c'c'']/[I:staff -1][d'd'']/[I:staff +1][c'c'']/[I:staff -1][d'd'']/[I:staff +1] [c'c'']/[I:staff -1][d'd'']/[I:staff +1][c'c'']/[I:staff -1][d'd'']/[I:staff +1] [c'c'']/[I:staff -1][d'd'']/[I:staff +1][c'c'']/[I:staff -1][d'd'']/[I:staff +1] [c'c'']/[I:staff -1][d'd'']/[I:staff +1][c'c'']/[I:staff -1][d'd'']/ | %254
"^23" [_e'_e''][e'e'']/[e'e'']/ [e'e''][e'e'']/[e'e'']/ [e'e''][c'c''][e'e''][_a'_a''] | %255
 [_e'_e''][e'e'']/[e'e'']/ [e'e''][e'e'']/[e'e'']/ [e'e''][c'c''][e'e''][_a'_a''] | %256
 _e''/b'/e''/_a''/ e''/b'/e''/a''/ e''/b'/e''/a''/ e''/b'/e''/a''/ | %257
 _e''/b'/e''/_a''/ e''/b'/e''/a''/ e''/b'/e''/a''/ e''/f''/_g''/a''/ | %258
!ff! =a''[a'a'']/[I:staff +1][c'f'a']/[I:staff -1] [a'a'']/[I:staff +1][c'f'a']/[I:staff -1][f'f'']/[I:staff +1][ac'f']/[I:staff -1] [b'b'']/[I:staff +1][d'f'b']/[I:staff -1][a'a'']/[I:staff +1][c'f'a']/[I:staff -1] [g'g'']/[I:staff +1][bd'g']/[I:staff -1][f'f'']/[I:staff +1][bd'f']/ | %259
[I:staff -1] [a'a'']/[I:staff +1][c'f'a']/[I:staff -1][a'a'']/[I:staff +1][c'f'a']/[I:staff -1] [a'a'']/[I:staff +1][c'f'a']/[I:staff -1][f'f'']/[I:staff +1][ac'f']/[I:staff -1] [b'b'']/[I:staff +1][d'f'b']/[I:staff -1][a'a'']/[I:staff +1][c'f'a']/[I:staff -1] [g'g'']/[I:staff +1][bd'g']/[I:staff -1][f'f'']/[I:staff +1][bd'f']/ | %260
[I:staff -1] [a'a'']/[I:staff +1][ac'f']/[I:staff -1][f'f'']/[I:staff +1][ac'f']/[I:staff -1] [b'b'']/[I:staff +1][bd'f']/[I:staff -1][f'f'']/[I:staff +1][bd'f']/[I:staff -1] [a'a'']/[I:staff +1][ac'f']/[I:staff -1][f'f'']/[I:staff +1][ac'f']/[I:staff -1] [b'b'']/[I:staff +1][bd'f']/[I:staff -1][f'f'']/[I:staff +1][bd'f']/ | %261
[I:staff -1] [a'a'']/[I:staff +1][ac'f']/[I:staff -1][f'f'']/[I:staff +1][ac'f']/[I:staff -1] [b'b'']/[I:staff +1][bd'f']/[I:staff -1][f'f'']/[I:staff +1][bd'f']/[I:staff -1] [a'a'']/[I:staff +1][ac'f']/[I:staff -1][f'f'']/[I:staff +1][ac'f']/[I:staff -1] [b'b'']/[I:staff +1][bd'f']/[I:staff -1][f'f'']/[I:staff +1][bd'f']/ | %262
[I:staff -1] [a'a'']!8va)! z z2 z2 [Dcd]z/[Ee]/ | [Fcf] z [Gcg] z [Aca] z [Gfg]z/[Aa]/ | %264
 [Bfb] z [cfc'] z [dfd'] z [eac'e'] z | [fbd'f'] z !>![cc'] z !>![faf'] z z2 |] %266
V:2
 z8 | z8 | z8 | z8 | z8 | z8 |[K:treble] A2 F2 D2 E2 | F6 A2 | c2 A2 c2 d2 | %9
 (!>!_e2- e/d/c/=B/ .c) z c2 | g2 ^f>=f =e2 c2 | f2 e>_e d2 c2 | B2 A2 G2 _e>_d | c2 _A2 _d2 c>B | %14
 =A2 F2 D2 E2 | F6 A2 | c2 A2 c2 d2 | (!>!_e2- e/d/c/=B/ .c) z c z | F2 ^F>G _A2 c2 | %19
 ^F2 G>^G =A2 d2 | ^c2 d2 _e2 d>=e | f2 a2 f2 z2 | %22
[I:staff -1] G[I:staff +1]G/[I:staff -1]G/[I:staff +1] GG/[I:staff -1]G/[I:staff +1] GE Gc | %23
 GG/[I:staff -1]G/[I:staff +1] GG/[I:staff -1]G/[I:staff +1] GE Gc | GA/=B/ cd z4 | %25
 GF/G/ _AG F_E D/E/F/^F/ | G x x2 z =E Gc | G x x2 z E G/=A/_B/c/ | ^cA e2 cA =F2 | %29
 BG/B/ _dc BG _E/=E/F/^F/ | G x x2 z E Gc | G x x2 z E Gc | GA/=B/ cd _e/d/c/B/ cd | %33
 _ef/g/ _a_b _c'/b/a/g/ a_c | _ee/e/ _ff/f/ e_c/B/ c/_d/e/f/ | _gg/g/ _aa/a/ gg/_d/ g/f/g/a/ | %36
 =a z =d/=e/f/=g/ a z g z | f z e/d/e/f/ g z c/B/A/G/ | Fc/f/ d/c/d/e/ fc/f/ G/A/B/c/ | %39
 dc de f z c/B/A/G/ | [Acf]2 [FBd]2 [_EGB]2 [E_Ac]2 | [F_A_d]6 [_Gd_e]>[Adf] | %42
 [B_d_g]2 [F_Ac]>[FB_d] [Fc_e]2 [=GB=d]>[GB=e] | [=Acf][cfa][fac'][cfa] [Acf]G/A/ Bc | %44
 [F_A_d]2 [_D_GB]2 [=B,^D^F]2 [B,E^G]2 | [^CEA]6 [FA_B]>[FA=B] | [FAc]z/d/ _ez/f/ _g z [=E=A=c] z | %47
 [_G_c_e] z [=EA=c] z [FAf] z D/E/F/=G/ | A3 F BAGF | G2 EG c_dcB | A3 F BAGF | ED^CD E2 A,2 | %52
 A3 F BAGF | G2 EG c_dcB | A3 F A2 FA | B2 AB =B2 G2 | D2 EF EFGA | B2 AB =B2 G2 | %58
 d2 ^cd _e2 _A=c | _e2 _Ac e2 dc | B3 G DEFG | A3 F BAGF | G2 EG c_dcB | A3 F BAGF | ED^CD E2 A,2 | %65
 F2 E2 D2 =C2 |[K:bass] B,2 A,2 G,2 F,2 | _E,2 G,2 B,2 _A,,C, | _E,2 G,2 B,2 G,C | %69
[K:treble] _E3 F _GFED | _EC=G,C E2 E2 | _ECG,C E2 DC |[K:bass] B,2 G,2 D,2 DB, | A,3 D, B,A,G,F, | %74
 E,2 A,2 D,4 | E,4 A,,2 A,2 | F,2 D,2 B,,4 | F,2 D,2 B,,4 | E,4 A,,2 A,2 | ^F,2 D,2 A,,4 | %80
 ^F,2 D,2 A,,4- | A,,6 A,,>A,, | A,,6 A,,>A,, | A,,2 [D,F,A,]>[D,F,A,] [D,G,B,] z z2 | %84
 z2 [D,F,A,]>[D,F,A,] [D,G,B,] z z2 | z2 .[D,F,A,] z z2 .[D,G,B,] z | %86
 z2 .[D,F,A,] z z2 .[D,G,B,] z | %87
[K:C] z2!8vb(! [B,,,,B,,,][D,,,D,,] [^F,,,^F,,][D,,,D,,][F,,,F,,][B,,,B,,] | %88
 [^F,,,^F,,][D,,,D,,][_E,,,_E,,][C,,,C,,] [F,,,F,,][D,,,D,,][E,,,E,,][C,,,C,,] | %89
 z2 [B,,,,B,,,][D,,,D,,] [^F,,,^F,,][D,,,D,,][F,,,F,,][B,,,B,,] | %90
 [^F,,,^F,,][D,,,D,,][_E,,,_E,,][C,,,C,,] [F,,,F,,][D,,,D,,][E,,,E,,][C,,,C,,] | %91
 z2 [B,,,,B,,,][D,,,D,,] [_E,,,_E,,][C,,,C,,][E,,,E,,][G,,,G,,] | %92
 [^F,,,^F,,][D,,,D,,][G,,,G,,][_E,,,_E,,] [F,,,F,,][D,,,D,,][G,,,G,,][E,,,E,,] | %93
 [^F,,,^F,,][D,,,D,,][G,,,G,,][_E,,,_E,,] [F,,,F,,][D,,,D,,][E,,,E,,][C,,,C,,] | %94
 [D,,,D,,][B,,,,B,,,][_E,,,_E,,][C,,,C,,] [=E,,,=E,,][^C,,,^C,,][A,,,A,,][^F,,,^F,,] | %95
 z2 [B,,,,B,,,][D,,,D,,] [_E,,,_E,,][C,,,C,,][E,,,E,,][G,,,G,,] | %96
 [^F,,,^F,,][D,,,D,,][G,,,G,,][_E,,,_E,,] [F,,,F,,][D,,,D,,][G,,,G,,][E,,,E,,] | %97
 [A,,,A,,][^F,,,^F,,][_B,,,_B,,][G,,,G,,] [A,,,A,,][F,,,F,,][G,,,G,,][_E,,,_E,,] | %98
 [C,,,C,,][A,,,,A,,,][^C,,,^C,,][^A,,,,^A,,,] [D,,,D,,][B,,,,B,,,][_E,,,_E,,][=C,,,=C,,]!8vb)! | %99
 [E,,E,][B,,,B,,][C,,C,][D,,D,] [^D,,^D,][^G,,^G,][=G,,=G,][F,,F,] | %100
 [E,,E,][B,,,B,,][C,,C,][D,,D,] [^D,,^D,][^G,,^G,][=G,,=G,][F,,F,] | %101
 [E,,E,][K:treble]E/^D/ E/^F/^G/A/ BG/^^F/ G/A/B/c/ | _d/c/_B/A/ B_B,/_D/ FD/F/ _AF/A/ | %103
 BB/B/ BB/B/ B^GBe | BB/B/ BB/B/ B^GBe | _e[K:bass]D,/_E,/ F,/G,/_A,/_B,/ CA,/B,/ C/D/_E/F/ | %106
[K:treble] ^FF/F/ F/^D/F/B/ F_G/A/ ^A/B/c/^c/ | dB/d/ gB/d/ ^fG/A/ B/=c/d/_e/ | %108
 d z[K:bass] [=G,,,=G,,][B,,,B,,] [G,,,G,,][B,,,B,,][G,,,G,,][B,,,B,,] | %109
 [D,,D,] z [=G,,,=G,,][B,,,B,,] [G,,,G,,][B,,,B,,][G,,,G,,][B,,,B,,] | %110
 [D,,D,] z [D,G,B,]2 [_E,A,C]2 [=E,_B,^C]2 | [F,_B,D]2 [G,=CE]2 [_A,CF]2 [=A,,,=A,,]2 | %112
 [D,,D,] z [=G,,,=G,,][B,,,B,,] [G,,,G,,][B,,,B,,][G,,,G,,][B,,,B,,] | %113
 [D,,D,] z [=G,,,=G,,][B,,,B,,] [G,,,G,,][B,,,B,,][G,,,G,,][B,,,B,,] | [D,,D,][K:treble] x x2 x4 | %115
 z8 | [F_B] z[K:bass] [_B,,,_B,,][D,,D,] [B,,,B,,][D,,D,][B,,,B,,][D,,D,] | %117
 [F,,F,] z [_B,,,_B,,][D,,D,] [B,,,B,,][D,,D,][B,,,B,,][D,,D,] | %118
 [F,,F,] z [_B,,,_B,,][D,,D,] [B,,,B,,][D,,D,][B,,,B,,][D,,D,] | %119
 [=B,,,=B,,][E,,E,][_B,,,_B,,][D,,D,] [B,,,B,,][D,,D,][=B,,,=B,,][E,,E,] | %120
 [E,,E,][^G,,^G,][_B,,,_B,,][D,,D,] [B,,,B,,][D,,D,][E,,E,][G,,G,] | %121
 [E,,E,][^G,,^G,][E,,E,][G,,G,] [E,,E,][G,,G,] E,,/D,,/C,,/_B,,,/ | %122
 [_A,,,_A,,][C,,C,][A,,,A,,][C,,C,] [A,,,A,,][C,,C,][K:treble] C/D/_E/F/ | ^FF/F/ FF/F/ x4 | x8 | %125
[K:bass] ^C^A, ^F,2 D,2 [B,,B,]2 | [=G,,=G,]2 [E,,E,]2 [=C,,=C,]2 [A,,,A,,]2 | %127
[K:bass]!8vb(! [^F,,,^F,,]2 [^D,,,^D,,]2 [B,,,,B,,,]2!8vb)! .E,,,.B,,, | %128
 .E,,,.B,,,.C,,.^C,, .D,,.G,,,._E,,.D,, | .^C,,.^G,,.A,,.G,, .D,,._B,,.=B,,.=C, | %130
 .^C,.D,._E,.D, .F,.D,.G,._A, |[K:treble] ._B,.C.^C.D .E.F.E.D | %132
 ^C z[K:bass] [A,,,A,,][^C,,^C,] [A,,,A,,][C,,C,][A,,,A,,][C,,C,] | %133
 [E,,E,] z [A,,,A,,][^C,,^C,] [A,,,A,,][C,,C,][A,,,A,,][C,,C,] | %134
 [^F,,^F,]2 [=F,,=F,]2 [E,,E,]2 [_E,,_E,]2 | [D,,D,]2 [_E,,_E,]2 [D,,D,]2 [_D,,_D,]2 | %136
 [C,,C,] z [C,,C,][=E,,=E,] [C,,C,][E,,E,][C,,C,][E,,E,] | %137
 [_A,,_A,] z [C,,C,][E,,E,] [C,,C,][E,,E,][C,,C,][E,,E,] | %138
 [C,,C,][E,,E,][C,,C,][E,,E,] [C,,C,][E,,E,][_D,,_D,][_G,,_G,] | %139
 [_D,,_D,][_G,,_G,][D,,D,][_B,,,_B,,] [_G,,,G,,][_D,,,D,,] [=D,,,=D,,]>[=E,,,=E,,] | %140
 [F,,,F,,]2 [^F,,,^F,,]2 [G,,,G,,]2 [G,,,G,,]>[_B,,,_B,,] | %141
 [D,,D,]2 [^D,,^D,]2 [E,,E,][F,,F,] [^F,,^F,]>[G,,G,] | %142
 [^G,,^G,]F,/=G,/ ^G,/=G,/^G,/^A,/ B,F,/=G,/ ^G,/=G,/^G,/A,/ | %143
 B,C,/^C,/ D,/^D,/E,/F,/ _G,/F,/E,/F,/ G,/=G,/_A,/=A,/ | %144
 _B,B,/_C/[K:treble] _D/C/D/=D/ _EB,/C/ _D/C/D/=D/ | %145
 _ED/=C/[K:bass] _B,/_A,/_G,/F,/ _E,/D,/C,/_B,,/ =A,,/_A,,/=G,,/_G,,/ | %146
 F,,[F,,F,] z [_B,,,_B,,] z [F,,F,] z [B,,,B,,] | z [F,,F,] z [_B,,,_B,,] z [F,,F,] z [B,,,B,,] | %148
 z [F,,F,] z [_B,,,_B,,] z [F,,F,] z [B,,,B,,] | z [F,,F,] z [_B,,,_B,,] z [F,,F,] z [B,,,B,,] | %150
 z F,,,/_G,,,/ _A,,,/_B,,,/=C,,/D,,/ _E,,/D,,/E,,/F,,/ _G,,/F,,/_A,,/F,,/ | %151
 z F,,/_G,,/ _A,,/_B,,/C,/D,/ _E,/D,/E,/F,/ _G,/F,/_A,/F,/ | %152
 C/_B,/_A,/G,/ B,/A,/G,/F,/ _E,/D,/C,/_B,,/ _A,,/G,,/F,,/_E,,/ | %153
 C,/_B,,/_A,,/G,,/ B,,/A,,/G,,/F,,/ _E,,/D,,/C,,/_B,,,/!8vb(! _A,,,/G,,,/F,,,/_E,,,/ | %154
 D,,,[D,,,D,,]/[I:staff -1]D,,/[I:staff +1] [D,,,D,,]/[I:staff -1]D,,/[I:staff +1][_E,,,_E,,]/[I:staff -1]E,,/[I:staff +1] [E,,,E,,]/[I:staff -1]E,,/[I:staff +1][D,,,D,,]/[I:staff -1]D,,/[I:staff +1] [D,,,D,,]/[I:staff -1]D,,/[I:staff +1][F,,,F,,]/[I:staff -1]F,,/!8vb)! | %155
[I:staff +1] [F,,,F,,]/[I:staff -1]F,/[I:staff +1][_E,,,_E,,]/[I:staff -1]_E,/[I:staff +1] [E,,,E,,]/[I:staff -1]E,/[I:staff +1][_G,,,_G,,]/[I:staff -1]_G,/[I:staff +1] [G,,,G,,]/[I:staff -1]G,/[I:staff +1][F,,,F,,]/[I:staff -1]F,/[I:staff +1] [F,,,F,,]/[I:staff -1]F,/[I:staff +1][_G,,,_G,,]/[I:staff -1]_G,/ | %156
[I:staff +1] [_A,,,_A,,]/[I:staff -1]_A,/[I:staff +1][_G,,,_G,,]/[I:staff -1]_G,/[I:staff +1] [_B,,,_B,,]/[I:staff -1]_B,/[I:staff +1][G,,,G,,]/[I:staff -1]G,/[I:staff +1] [C,,C,]/[I:staff -1]C/[I:staff +1][G,,,G,,]/[I:staff -1]G,/[I:staff +1] A,,,/B,,,/C,,/D,,/ | %157
 _E,,/[I:staff -1][_E,_E]/[I:staff +1]D,,/[I:staff -1][D,D]/[I:staff +1] F,,/[I:staff -1][F,F]/[I:staff +1]D,,/[I:staff -1][D,D]/[I:staff +1] _G,,/[I:staff -1][_G,_G]/[I:staff +1]D,,/[I:staff -1][D,D]/[I:staff +1] _A,,/_B,,/C,/^C,/ | %158
 D,[=C,,=C,]/[I:staff -1][Cc]/[I:staff +1] [D,,D,]/[I:staff -1][Dd]/[I:staff +1][_E,,_E,]/[I:staff -1][_E_e]/[I:staff +1] [D,,D,]/[I:staff -1][Dd]/[I:staff +1][=B,,,=B,,]/[I:staff -1][=B,=B]/[I:staff +1] [D,,D,]/[I:staff -1][Dd]/[I:staff +1][F,,F,]/[I:staff -1][Ff]/ | %159
[I:staff +1] [D,,D,]/[I:staff -1][Dd]/[I:staff +1][C,,C,]/[I:staff -1][Cc]/[I:staff +1] [D,,D,]/[I:staff -1][Dd]/[I:staff +1][_E,,_E,]/[I:staff -1][_E_e]/[I:staff +1] [D,,D,]/[I:staff -1][Dd]/[I:staff +1][_B,,,_B,,]/[I:staff -1][_B,_B]/[I:staff +1] [D,,D,]/[I:staff -1][Dd]/[I:staff +1][F,,F,]/[I:staff -1][Ff]/ | %160
[I:staff +1] [D,,D,]/[I:staff -1][Dd]/[I:staff +1][_E,,_E,]/[I:staff -1][_E_e]/[I:staff +1] [D,,D,]/[I:staff -1][Dd]/[I:staff +1][F,,F,]/[I:staff -1][Ff]/[I:staff +1] [D,,D,]/[I:staff -1][Dd]/[I:staff +1][G,,G,]/[I:staff -1][Gg]/[I:staff +1] [D,,D,]/[I:staff -1][Dd]/[I:staff +1][A,,A,]/[I:staff -1][Aa]/ | %161
[I:staff +1] [D,,D,]/[I:staff -1][Dd]/[I:staff +1][_B,,_B,]/[I:staff -1][_B_b]/[I:staff +1] [C,C]/[I:staff -1][cc']/[I:staff +1][D,D]/[I:staff -1][dd']/[I:staff +1] [_E,_E]/[I:staff -1][_e_e']/[I:staff +1][F,F]/[I:staff -1][ff']/[I:staff +1] [G,G]/[I:staff -1][gg']/[I:staff +1][A,A]/[I:staff -1][aa']/ | %162
[I:staff +1][K:treble] z8 | z8 | z8 | z8 | [^CG_B] z[K:bass]!8vb(! !>![D,,,D,,]4 !>![_D,,,_D,,]2- | %167
 [D,,,D,,]2 !>![C,,,C,,]2 !>![=B,,,,=B,,,]2 !>![_B,,,,_B,,,]2 | %168
 !>![A,,,,A,,,]2!8vb)![K:treble] (3[A,A][A,A][A,A] (3[A,A][^G,^G][A,A] (3[A,A][_B,_B][A,A] | %169
 (3[A,A][^G,^G][A,A] (3[A,A][_B,_B][A,A] (3[A,A][G,G][A,A] (3[A,A][Cc][A,A] | %170
 z2 (3[A,A][A,A][A,A] (3[A,A][_B,_B][A,A] (3[A,A][A,A][A,A] | %171
 (3[A,A][_B,_B][A,A] (3[A,A][A,A][A,A] (3[A,A][B,B][A,A] (3[A,A][Cc][A,A] | %172
 [D^FA]2 x[K:bass] x z2 x2 | z8 | [C,,G,,]2 x2 x4 | z8 | [D,,=A,,]2 x2 z2 x2 | z8 | z8 | z8 | z8 | %181
 z8 | z8 | z8 | [^C,,G,,_B,,] z7 | z2 ^C,,C,, D,,C,,E,,C,, | %186
 D,,/E,,/F,,/G,,/ _A,,G,, _B,,G,, A,,/B,,/C,/D,/ | _E,D,/E,/ F,E,/F,/ _G,F,/G,/ _A,G,/A,/ | %188
 =A,/_B,/C/D/[K:treble] _ED/E/ FE/F/ _GF/G/ | .=G._E._A.E .G.E.F.E | (G/_A/_B/c/ .B).A .G.F._E.D | %191
 ._E.D.E.C .E._B,.E._A, | (=D/_E/F/G/ ._A)._B ._c.B._d.B | ._e._B._A.B .G.B.F.B | %194
 (G/_A/_B/c/) .B.A .G.F._E.D | .^C.D.=E.^F .G.D G/F/E/D/ | .^C.D.E.^F .G.D G/F/=F/E/ | %197
 ._E z .=C z ._A, z ._B, z | C6 ._E z | ._G z ._E z .G z ._A z | (!>!__B2- B/_A/_G/F/ .G) z .G z | %201
 (!>!__B2- B/_A/_G/F/ .G) z .G z | .F z ._A z ._G z .A z | .F z ._A z ._G z .A z | %204
 .F z ._E z .=D z .F z | ._E z .D z .C z ._C z | ._B, z .[B,C] z .[B,_D] z .[B,C].[B,D] | %207
 .[_B,_E] z .[B,F] z .[B,_G] z (F/E/_D/C/) |[K:bass] ._B, z .[A,B,] z .[G,B,] z .[_G,B,] z | %209
 .[F,_B,] z .[_E,B,] z .[D,B,] z (!>!_D/C/B,/_A,/) | G,2 G,2 G,2 G,2 | G,2 G,2 G,2 G,2 | %212
 G,2 G,2 G,2 G,2 | G,2 G,2 G,2 G,2 | G,2 G,2 =G,2 G,2 | G,2 [G,A,]2 [G,_B,]2 [G,C]2 | %216
 G,2 [G,A,]2 [G,_B,]2 [G,C]2 | [_G,_D]4 [=G,_E]4 | [_G,_D]4 [=G,_E]4 | [A,=E]4 [_B,_G]4 | %220
 [A,E]4 [_B,_G]4 | [=B,=G]4 [_B,_D]4 ||[K:F] F,, z B,,4 C, z | F,, z B,,4 C, z | %224
 F,, z B,, z F,, z B,, z | F,, z B,,4 C, z | G,,4 C, z C, z | =D,6 E, z | F, z E, z F, z =E, z | %229
 A, z B, z =G, z C, z | F, z B,,4 C, z | F,, z B,,4 C, z | F,, z B,, z F,, z B,, z | %233
 F,, z B,,4 C, z | F, z D,2- D,_E,D,C, | B,, z =D,2- D,_D,C,=B,, | _B,, z G,, z _D, z =C, z | %237
 B,, z C, z F,, z z2 | %238
[K:treble] cc/[I:staff -1]c/[I:staff +1] cc/[I:staff -1]c/[I:staff +1] cA cf | %239
 cc/[I:staff -1]c/[I:staff +1] cc/[I:staff -1]c/[I:staff +1] cA cf | cd/e/ z2 z4 | %241
 cB/c/ _dc B_A G/A/B/=B/ | c x x2 z =A cf | c x x2 z A c/=d/_e/f/ | ^fd a2 fd B2 | %245
 _ec/e/ _gf ec _A/=A/B/=B/ | c/A/d/e/ f/e/d/c/ B/A/G/F/ E/C/D/E/ | %247
 F/G/A/B/ c/d/c/B/ A/G/F/E/ D/C/D/E/ | F/G/A/B/ c x x4 | z8 | c/A/d/e/ f/e/d/c/ B/A/G/F/ E/C/D/E/ | %251
 F/G/A/B/ c/d/c/B/ A/G/F/E/ D/C/D/E/ | F/G/A/B/ c x x4 | z8 | _ee/e/ ee/e/ ece_a | %255
 _ee/e/ ee/e/ ece_a | _e/B/e/_a/ e/B/e/a/ e/B/e/a/ e/B/e/a/ | %257
 _e/B/e/_a/ e/B/e/a/ e/B/e/a/ e/f/_g/a/ | =a x x2 x4 | z8 | z8 | z8 | %262
 [Acf] z z2 z2[K:bass] [D,C]z/[E,C]/ | [F,C] z [G,C] z [A,C] z [G,F]z/A,/ | %264
 [F,B,F] z [F,CF] z [F,DF] z [E,A,CE] z | [F,B,DF] z !>![C,C] z !>![F,A,F] z z2 |] %266
V:3
 x8 | x8 | x8 | x8 | x8 | x8 |[K:treble] x8 | x8 | x8 | x8 | x8 | x8 | x8 | x8 | x8 | x8 | x8 | %17
 x8 | x8 | x8 | x8 | x8 | x8 | x8 | x8 | x8 | x8 | x8 | x8 | x8 | x8 | x8 | x8 | x8 | x8 | x8 | %36
 x8 | x8 | x8 | x8 | x8 | x8 | x8 | x8 | x8 | x8 | x8 | x8 | x8 | x8 | x8 | x8 | x8 | x8 | x8 | %55
 x8 | x8 | x8 | x8 | x8 | x8 | x8 | x8 | x8 | x8 | x8 |[K:bass] x8 | x8 | x8 |[K:treble] x8 | x8 | %71
 x8 |[K:bass] x8 | x8 | x8 | x8 | x8 | x8 | x8 | x8 | x8 | x8 | x8 | x8 | x8 | x8 | x8 | %87
[K:C] x2!8vb(! x6 | x8 | x8 | x8 | x8 | x8 | x8 | x8 | x8 | x8 | x8 | x8!8vb)! | x8 | x8 | %101
 x[K:treble] x7 | x8 | x8 | x8 | x[K:bass] x7 |[K:treble] x8 | x8 | x2[K:bass] x6 | x8 | x8 | x8 | %112
 x8 | x8 | x[K:treble] x7 | x8 | x2[K:bass] x6 | x8 | x8 | x8 | x8 | x8 | x6[K:treble] x2 | x8 | %124
 x8 |[K:bass] x8 | x8 |[K:bass]!8vb(! x6!8vb)! x2 | x8 | x8 | x8 |[K:treble] x8 | x2[K:bass] x6 | %133
 x8 | x8 | x8 | x8 | x8 | x8 | x8 | x8 | x8 | x8 | x8 | x2[K:treble] x6 | x2[K:bass] x6 | x8 | x8 | %148
 x8 | x8 | x8 | x8 | x8 | x6!8vb(! x2 | x8!8vb)! | x8 | x8 | x8 | x8 | x8 | x8 | x8 | %162
[K:treble] x8 | x8 | x8 | x8 | x2[K:bass]!8vb(! x6 | x8 | x2!8vb)![K:treble] x6 | x8 | x8 | x8 | %172
 x3[K:bass] x5 | x8 | x8 | x8 | x8 | x8 | x8 | x8 | x8 | x321/40 | x321/40 | x321/40 | x8 | x8 | %186
 x8 | x8 | x2[K:treble] x6 | x8 | x8 | x8 | x8 | x8 | x8 | x8 | x8 | x8 | x8 | x8 | x8 | x8 | x8 | %203
 x8 | x8 | x8 | x8 | x8 |[K:bass] x8 | x8 | x8 | x8 | x8 | x8 | x8 | x8 | x8 | z2 C,4 C,2 | %218
 z2 C,4 C,2 | z2 C,4 C,2 | z2 C,4 C,2 | z2 C,4 C,2 ||[K:F] x8 | x8 | x8 | x8 | x8 | x8 | x8 | x8 | %230
 x8 | x8 | x8 | x8 | x8 | x8 | x8 | x8 |[K:treble] x8 | x8 | x8 | x8 | x8 | x8 | x8 | x8 | x8 | %247
 x8 | x8 | x8 | x8 | x8 | x8 | x8 | x8 | x8 | x8 | x8 | x8 | x8 | x8 | x8 | x6[K:bass] x2 | x8 | %264
 x8 | x8 |] %266
V:4
 z8 | z4 z2!f! .[CD]z/.E/ | .[DF] z .[EG] z .[FA] z .[FG]z/.A/ | %3
 .[FB] z .[FA]z/._A/ .[FG] z .[=Ac] z | .[FA] z !>!F->G .[FA] z .[Ac] z | %5
"_dim." .[FA] z !>!F->G .[FA] z .[Ac] z |!p! .[FA] z !>!F->G .[FA] z .[Ac] z | %7
 .[FA] z !>!F->G .[FA] z .[Ac] z | .[FA] z F->G .[FA] z .[FB] z | .[FA] z !>!F->G .[FA] z .[Ac] z | %10
 ([GB]2 G/A/B/=B/ .[Ac]) z .[Ac] z | (!>![B_d]2 c/=B/c/d/ .[A=d]) z .[Ac] z | %12
 .[DAB] z .[DAc] z .[DB_d] z .[EBd] z | .[FBc] z .[FB_d] z .[_GB_e] z .[EA=e] z | %14
 .[FA] z !>!F->G .[FA] z .[Ac] z | .[FA] z !>!F->G .[FA] z .[Ac] z | %16
 .[FA] z !>!F->G .[FA] z .[Ac] z | .[FA] z !>!F->G .[FA] z .[Ac] z | %18
 .[Ac] z ((!>![cd]2 [cd])) z z2 | .[B_d] z ((!>![=B=d]2 [Bd])) z z2 | z2 .[Bc] z .[Bc] z .[B^c] z | %21
 .[Ad] z .[Ae] z .[Af] z z2 | z!mf! [G,CE] z [G,CE] z [G,CE] z [G,CE] | %23
 z [G,CE] z [G,CE] z [G,CE] z [G,CE] | z [G,CE] z [G,CE] z [_A,C_E] z [A,CE] | %25
 z [_A,CF] z [A,CF] z [=A,_DF] z [B,DF] | z [G,CE] z [G,CE] z [G,CE] z [G,CE] | %27
 z [G,CE] z [G,CE] z [G,CE] z [G,CE] | z [G,^CE] z [G,CE] z [A,=C_E] z [A,CE] | %29
 z [G,_DF] z [G,DF] z [G,DF] z [_A,CF] | z [G,C=E] z [G,CE] z [G,CE] z [G,CE] | %31
 z [G,CE] z [G,CE] z [G,CE] z [G,CE] | z [G,CE] z [G,CE] z [A,CF] z [A,CF] | %33
 z .a .d'.b ._e'._c' ._f'._g | .f._g ._a.g ._c'.g .c'.a | %35
!mf! [_GB_d] z [F_cd] z [GBd] z z!f! [=C=c] | [FAf] z z2!mf!!mf!!mf! [FAf]2 [Fdf]2 | %37
 [Fcf]2 [FBf]2 [Ece]2 ([Dd]>.[Ee]) | [Fcf]2 [Gcg]2 [Aca]2 ([Gg]>.[Aa]) | %39
 [Bfb]2 [Aa]>[_A_a] [Gfg]2 [=Ace=a]2 | [FAcf] z z2 z4 | z2!f! C/_D/_E/F/ _G_A BA | %42
 _g_e _af b=g c'c | .f.c .d.e .f z [_G_A_g] z | [F_Af] z z2 z4 | z2!f! ^G/=G/^F/=F/ E_ED_D | %46
 C z [=c_e_a]2 [_ce_g]2 [=A=a]2 | [_c_e_g]2 [=A=a]2 [Aa]2 z2 | %48
 z!p!!p!!p! [A,FA][A,FA] z z [A,FA][A,FA] z | z .[A,GA].[A,GA] z z .[A,GA].[A,GA] z | %50
 z .[A,FA].[A,FA] z z .[A,FA].[A,FA] z | z .[A,GA].[A,GA] z z .[A,GA].[A,GA] z | %52
 z2 z .[A,FA] .[A,FA] z z .[A,FA] | .[A,GA] z z .[A,GA] .[A,GA].[B,GB] .[CGc] z | %54
 z .[A,FA].[A,FA] z z .[A,FA].[A,FA] z | z [A,FA][A,FA] z z [A,GA][A,GA] z | %56
 z .[^G,=G_A].[G,GA] z z .[A,G=A].[A,GA] z | z .[B,GB].[B,GB] z z .[=B,G=B].[B,GB] z | %58
 z .[=B,G=B].[B,GB] z z .[CGc].[CGc] z | z .[CGc].[CGc] z z .[C_Ac].[CAc] z | %60
 z .[B,GB].[B,GB] z z .[A,GA].[A,GA] z | z .[A,FA].[A,FA] z z .[A,FA].[A,FA] z | %62
 z .[A,GA].[A,GA] z z .[A,GA].[A,GA] z | z .[A,FA].[A,FA] z z .[A,FA].[A,FA] z | %64
 z .[A,GA].[A,GA] z z .[A,GA].[A,GA] z | z .[A,FA] z .[A,GA] z .[A,FA] z .[A,GA] | %66
 z .[B,FB] z .[CFc] z .[G,DG] z .[A,DA] | z .[B,GB] z .[B,GB] z .[C_AB] z .[CAB] | %68
 z .[B,GB] z .[B,GB] z .[C_AB] z .[CAB] | z .[CGB].[CGB] z z .[CGB].[CGB] z | %70
 z .[CGB].[CGB] z z .[CGB].[CGB] z | z .[CGB].[CGB] z z .[C^FB].[CFB] z | %72
 z .[B,GB].[B,GB] z z .[B,GB].[B,GB] z | z .[A,GA].[A,GA] z z .[A,GA].[A,GA] z | %74
 z .[A,GA].[A,GA] z z .[A,FA].[A,FA] z | z .[A,GA].[A,GA] z z .[A,GA].[A,GA] z | %76
 z .[B,FA].[B,FA] z z .[B,FA].[B,FA] z | z .[B,FA].[B,FA] z z .[B,FA].[B,FA] z | %78
 z!pp!!pp!!pp! .[A,GA].[A,GA] z z .[A,GA].[A,GA] z | z .[A,^FA].[A,FA] z z .[A,FA].[A,FA] z | %80
 z .[A,^FA].[A,FA] z z .[A,FA].[A,FA] z | z!p! .=f.e.d .^c2 z2 | z .^c.=c.=B ._B2 z2 | z8 | z8 | %85
 z8 | z8 |[K:C]!ff! [B,DGB] z z2 z4 | z8 | !>![B,DGB] z z2 z4 | z8 | [dd']2 [Bb]2 [Gg]2 [Aa]2 | %92
 [Bb]6 [dd']2 |!8va(! [^f^f']2 [dd']2 [ff']2 [gg']2 | ([_a_a'-]2 a'/g'/^f'/=f'/ e'2) [_e_e']2 | %95
 [dd']2 [Bb]2 [Gg]2 [Aa]2 | [Bb]6 [dd']2 | [^f^f']2 [dd']2 [ff']2 [gg']2 | %98
 ([aa'-]2 a'/g'/^f'/g'/ a'2) [_b_b']2 |!ff! bb/b/ bb/b/ b^gbe' | bb/b/ bb/b/ b^gbe' | %101
 b'b !>![cc']2- [cc'][Bb] !>![_d_d']2 | [Ff][_B_b][_d_d'] z z4!8va)! | %103
 z !>![e^g]2 !>![_e=g]2 .[d^f].[_d=f].[c=e] | z !>![e^g]2 !>![_e=g]2 .[=d^f].[_d=f].[c=e] | %105
 z c_d=d _e_ag_g | =f^f z =g z ^g=a^a | b z !>!c2 !>![B^f]2 !>![Aeg]2 |!ff! [_Bf_a] z4 z z2 | %109
 [_Bf_a] z4 z z2 | z8 | z4 z2!ff! [eg]2 | !>![dg] z z2 z4 | [_Bf_a] z4 z z2 | z2 d4 d2- | %115
 d2 d>d d2 d2 |!ff! [dd']2 [_B_b]2 [Gg]2 [Aa]2 | [_B_b]6!8va(! [dd']2 | %118
 [ff']2 [dd']2 [ff']2 [gg']2 | ([_a_a'-]2 a'/g'/f'/e'/ f') z .e'.^g' | %120
 .b' z ._b.d' .f' z .e'.^g'!8va)! | .=b z .b.^c' .b z .c'.d' | %122
 !>![_e_e']2 !>![_f_f']2 !>![ee']2 z2 | z z z2 z2 z2 | [G,G]2 [^F,^F]2 [G,G]2 [=A,=A]2 | %125
 [_D_B] z z!8va(! .[^f^f'] z .[gg'] z .[^g^g'] | z .[aa'] z .[_b_b'] z .[=b=b'] z .[c'c''] | %127
 z .[d'd''] z .[e'e''] z .[f'=f''] z2!8va)! | z8 | z8 | z8 | z8 |!ff! ^c2 A2 ^F2 ^G2 | %133
 A6 (([AB]>.[A^c])) | [Ad]2 [A^c]2 [ABd]2 [Ac=e]2 | [_Bdf]2 (([_BBd]>.[Bc_e])) [Bdf]2 [B^d^f]2 | %136
 [c=eg]2 [Gc=e]2 [GAc]2 [Gc=d]2 | [Gce]6 (([cdf]>.[ceg])) | %138
 [cf_a]2 [ceg]2 [cfa]2 (([_gg_b]>.[g_ac'])) | [_g_b_d']2 [g_ac']2 [gbd']2 z!ff! .[Cc] | %140
 z .[Cc] z .[B,B] z .[Cc] z .[Dd] | z .[G,G] z .[G,G] z .[G,G] z .[^A,^A] | %142
 [B,B] z!f!!f! [cfc']2 [Beb]2 [cfc']2 | z2 .[Ff]z/.[^F^f]/ .[=G=g] z .[_A_a]z/.[=A=a]/ | %144
 .[_B_b] z z2 z4 | z2 .[Aa]z/.[_B_b]/ .[=B=b] z .[cc']z/.[^c^c']/ | .d.d/.d/ .d.d/.d/ .d._B.d.f | %147
 .d.d/.d/ .d.d/.d/ .d._B.d.f | .d._E/.F/ ._G._A ((!>!_B/A/G/F/ .G)).A | %149
 ._B.c/.d/ ._e.f ((!>!_g/f/e/d/ .e)).g |!8va(! ._a'.f' !>!c''2 .a'.f' !>!d'2 | %151
 ._a'.f' !>!c''2 .a'.f' !>!d'2 | !>!c'2 .^c'.d' _e'2 g'2 | !>!c'2 .^c'.d' _e'2 g'2!8va)! | %154
!ff! !>![dd'] z z2 z4 | !>![^c^c'] z z2 z4 | !>![cc'] z z2 z4 | .[_ac'_e'] z z2 z4 | %158
 .[dd'] z z2 .[d'_e'] z .[d'f'] z | .[d'^f'] z .d' z z2 !>![=F_Bd] z | %160
 z2 !>![F_Bd] z z2 !>![DA] z | z2 [FAc] z z2 [G_Bd] z |!ff! [g_b]6 [ga]2 | [g_b]6 [ga]2 | %164
 [g_b]2 [ga]2 [gb]2 [ga]2 | [g_b]2 [ga]2 [gb]2 [ga]2 | !>![g_b]4 !>![g=b]4 | !>![gc']4 !>![ge']4 | %168
 [aa']4 [eg]4- | [eg]2 [^d^f]2 [eg]2 [ce]2 | z2 [f_a]4 [eg]2 | [f_a]2 [_df]2 [_eg]2 [c=e]2 | %172
!fff!!fff!!8va(! [ac'^f'a']6 [f_bd'=f']2 | [_b_e'g'_b']2 [ac'f'a']2 [g=bd'g']2 [f_bd'f']2 | %174
 [gc'e'g']4 [egc'e']2 [gc'e'g']2!8va)! | %175
!8va(! [c'_e'_a'c'']2 [_d'_g'_b'_d'']2 [c'e'a'c'']2 [_b=d'f'b']2 | [ac'^f'a']6 [f_bd'=f']2 | %177
 [_b_e'g'_b']2 [ac'f'a']2 [g=bd'g']2 [f_bd'f']2 | [egc'e']4 [^cf^g^c']2 [e^gd'e']2 | %179
 [a^c'=e'a']2 [_b_e'g'_b']2 [a=c'f'a']2 [g=bd'g']2 | [f_bd'f']4 [a^c'e'a']2 [b=c'e'_b']2 | %181
 [ac'f'a']4 [fac'f']2 [ac'f'a']2 | [_b_e'g'_b']4 [ac'f'a']2 [be'g'b']2 | %183
 [bf'g'b']4 [g_b_e'g']2 [=bf'g'b']2 | !>![d'e'_b'd''] z z2!8va)! z4 | z8 | z8 | z8 | z8 | z8 | z8 | %191
 z8 | z8 | z8 | z8 | z8 | z8 | z8 | z8 | z8 | z8 | z8 | z8 | z8 | z8 | z8 | z8 | z8 | z8 | z8 | %210
 z8 | z8 | z8 | z8 | z8 | z8 | z8 | z8 | z8 | z8 | z8 | z8 ||[K:F]!f!!f! .a z .f z .d z .e z | %223
 f6 .a z | .c' z .a z .c' z .d' z | (_e'2- e'/d'/c'/=b/) .c' z .c' z | .b z .bz/.=b/ .c' z .c' z | %227
 .f' z .e'z/._e'/ .d' z .c' z | .b z .a z .g z ._e'z/._d'/ | .c' z ._a z ._d' z .c'z/.b/ | %230
 .=a z .f z .=d z .e z | f6 .a z | .c' z .a z .c' z .d' z | (!>!_e'2- e'/d'/c'/=b/) .c' z .c' z | %234
 .f z .^fz/.g/ ._a z .c' z | ._g z .=gz/.^g/ .a z .d' z | .^c' z .d' z ._e' z .d'z/.=e'/ | %237
 .f' z .c' z .f' z z2 | z8 | z8 | z8 | z8 | z4!ff! .c.c/.c/ .c.c/.c/ | .c.A.c.f .c.c/.c/ .c.c/.c/ | %244
 .c.c/.c/ .c.c/.c/ .c.A.c.f | .c.c/.c/ .c.c/.c/ .c.c/.c/ .c z | %246
!ff!!ff! [Ff]2 [Ee]>[Ff] [Dd]2 [Bb]2 | [Aa]2 [Gg]2 [cc']2 [CD]>[CE] | [CF]2 [CG]2 [CA]2 [FG]>[FA] | %249
 [FB]2 [FA]>[F_A] [FG]2 [ce]2 | [cfa] z ((E>.F)) D2 B2 | A2 G2 c2 ([cd]>.[ce]) | %252
 [cf]2 [cg]2 [ca]2 ([fg]>.[fa]) | [fb]2 [fa]>[f_a] [fg] z !>![ce=a] z | %254
 z .[_ec'] z .[ec'] z .[ec'] z .[ec'] | z .[_ec'] z .[ec'] z .[ec'] z .[ec'] | %256
 z [_e_a] z [ea] z [ea] z [ea] | z [_e_a] z [ea] z [ea]!8va(! _e'/f'/_g'/_a'/ | %258
!ff! [c'f'=a']!8va)! z z2 z2 [dfb] z | [cfa] z z2 z2 [dfb] z | [cfa] z [dfb] z [cfa] z [dfb] z | %261
 [cfa] z [dfb] z [cfa] z [dfb] z | [cfa] z Ez/F/ D z (dz/.e/) | .f z .g z .a z ([fg]z/.[fa]/) | %264
 .[fb] z .[fc'] z .[fd'] z .[c'e'] z | .[d'f'] z .c' z .f' z z2 |] %266
V:5
!f! .F, z .E,z/.F,/ .D, z .B, z | .A, z .G, z .C z .B, z | .[A,C] z .[G,C] z .[F,C] z .[E,C] z | %3
 .D, z .C, z .B,, z .C, z | .F,, z (!>!B,,2- .B,,) z .C, z |"_dim." .F,, z !>!B,,2- .B,, z .C, z | %6
!p! .F,, z !>!B,,2- .B,, z .C, z | .F,, z !>!B,,2- .B,, z .C, z | .F,, z (B,,2 .F,,) z .B,, z | %9
 .F,, z !>!B,,2- .B,, z .C, z | ((!>![G,B,F]4 .[A,CF])) z [CE] z | %11
 ((!>![B,DF]4 .[A,DF])) z [CE] z | .[F,B,] z .[E,C] z .[F,^C] z .[E,C] z | %13
 .[A,=C] z .[B,_D] z .[=G,_E] z .C z | .F,, z !>!B,,2- .B,, z .C, z | %15
 .F,, z !>!B,,2- .B,, z .C, z | .F,, z (B,,2 .F,,) z .B,, z | .F,, z !>!B,,2- .B,, z .C, z | %18
 F, z (!>!D,2 D,)._E, .D,.C, | .B,, z (!>!=D,2 .D,)._D, .C,.=B,, | ._B,, z .G,, z ._D, z .=C, z | %21
 .B,, z .C, z .F,, z z2 | z!mf! [C,,C,] z [C,,C,] z [C,,C,] z [C,,C,] | %23
 z [C,,C,] z [C,,C,] z [C,,C,] z [C,,C,] | z [C,,C,] z [C,,C,] z [C,,C,] z [C,,C,] | %25
 z [C,,C,] z [C,,C,] z [C,,C,] z [C,,C,] | z [C,,C,] z [C,,C,] z [C,,C,] z [C,,C,] | %27
 z [C,,C,] z [C,,C,] z [C,,C,] z [B,,,B,,] | z [A,,,A,,] z [A,,,A,,] z [F,,,F,,] z [F,,,F,,] | %29
 z [B,,,B,,] z [B,,,B,,] z [_E,,_E,] z [G,,,G,,] | z [C,,C,] z [C,,C,] z [C,,C,] z [C,,C,] | %31
 z [C,,C,] z [C,,C,] z [C,,C,] z [C,,C,] | z [C,,C,] z [C,,C,] z [C,,C,] z [C,,C,] | %33
 z .A, .D.B, ._E._C ._F._G, | .=F,._G, ._A,.G, ._C.G, .C.A, | %35
!mf! [_D,_D] z [_D,,D,] z [_G,,_G,] z z!f! [C,,=C,] | [F,,F,]2 E,,>F,, D,,2 B,,2 | %37
 A,,2 G,,2 C,2 B,,2 | A,,2 G,,2 F,,2 E,,2 | D,,2 C,,2 B,,,2 C,,2 | %40
 [F,,F,]2 [B,,,B,,]2 [_E,,_E,]2 _A,,2 | [_D,,_D,]6 B,,_A,, | _G,,_E,, _A,,F,, B,,=G,, C,C,, | %43
 .F,,.C,, .D,,.E,, .F,, z z2 | [_D,,_D,]2 [_G,,_G,]2 [=B,,,=B,,]2 [=E,,=E,]2 | %45
 A,,2 ^G,,/=G,,/^F,,/=F,,/ E,,_E,, D,,_D,, | .[C,,C,] z .[_G,,_G,] z .[_C,,_C,] z .[=C,,=C,] z | %47
 .[_C,,_C,] z .[=C,,=C,] z .[F,,F,] z z2 |!p!!p! D,, z z A,,, D,, z z A,,, | %49
!p! D,, z z A,,, D,, z z A,,, |!p! D,, z z A,,, D,, z z A,,, | E,, z z A,,, B,,,C,,_D,,C,, | %52
 B,,,A,,, D,, z z A,,,D,, z | z A,,,E,, z z z z A,,, | D,, z z A,,, D,, z z A,,, | %55
 D,, z z A,,, D,, z z A,,, | .D,, z z .A,,, .D,, z z .A,,, | ._E,, z z .A,,, .D,, z z .A,,, | %58
 ._E,, z z .A,,, .E,, z z ._A,,, | ._E,, z z ._A,,, .D,, z z .G,,, | %60
 .D,, z z ._A,,, ._E,, z z .=A,,, | .D,, z z .A,,, .D,, z z .A,,, | .E,, z z .A,,, .E,, z z .A,,, | %63
 .D,, z z .A,,, .D,, z z .A,,, | .E,, z z .A,,, .E,, z z .A,,, | z .D, z .E, z .F, z .E, | %66
 z .D, z .C, z .G,, z .F,, | z ._E,, z .E,, z ._A,, z .A,, | z ._E,, z .E,, z ._A,, z .A,, | %69
 ._E,, z z .E,, .E,, z z .E,, | ._A,, z z ._E,, .A,, z z .E,, | ._A,, z z ._E,, .A,, z z .D,, | %72
 .=A,, z z .D,, .A,, z z .D,, | .B,, z z .A,, .B,, z z .A,, | .C, z z .A,, .B,, z z .A,, | %75
 .C, z z .A,, .B,, z z .A,, | .^G,, z z .A,, .G,, z z .A,, | .^G,, z z .A,, .G,, z z .A,, | %78
!pp! .B,, z z .A,, .C, z z .A,, | .D, z z .A,, .D, z z .A,, | .D, z z .A,, .D, z z .A,, | %81
 .B,, z z2 z!p! .G,.F,.E, | ._E,2 z2 z ._G,.F,.E, | .D,2 z2 z2 A,,2 | D,2 z2 z2 A,,2 | %85
 D,2 z2 z2 A,,2 | D,2 z2 z2 A,,2 |[K:C]!ff! [D,,G,,B,,D,] z z2 z4 | z8 | [D,,G,,B,,D,] z z2 z4 | %90
 z8 |!ff!!ff! [D,,G,,B,,D,] z z2 [G,,G,]2 [A,,A,]2 | [B,,B,]6 [D,D]2 | %93
 [^F,^F]2 [D,D]2 [F,F]2 [G,G]2 | ([_A,_A-]2 A/G/^F/=F/ E2) z2 | %95
!ff!!ff! [D,,G,,B,,D,] z z2 [G,,G,]2 [A,,A,]2 | [B,,B,]6 [D,D]2 | [^F,^F]2 [D,D]2 [F,F]2 [G,G]2 | %98
 ([A,A-]2 A/G/^F/G/ A2) z2 |!f! !>![B,,^G,] z z2 !>![B,,^D,G,] z z2 | %100
 !>![B,,^G,] z z2 !>![B,,^D,G,] z z2 | !>![B,,^G,] z z2 z4 | %102
 z2 z!ff! !>![_B,_A]2 !>![=B,A]2 !>![CA] | z !>![B,^G]2 !>![_B,=G]2 .[A,^F].[_A,=F].[G,E] | %104
 z !>![B,^G]2 !>![_B,=G]2 .[A,^F].[_A,=F].[G,E] | !>![_E,_A,C_E] z z2 !>![E,A,CE] z z2 | %106
 !>![_E,_G,B,^D] z z2 !>![E,G,B,D] z z2 | z z !>![B,,,B,,]2 !>![C,,C,]2 !>![A,,,A,,]2 | %108
!ff! !>![D,,D,] z z2 z4 | !>![D,,D,] z z2 z4 | z8 |!8va(! z4 z2!f! [CEGc]2 | [DB]!8va)! z z2 z4 | %113
 !>![D,,D,] z z2 z4 | z2!f! D4 D2- | D2 D>D D2 D2 |!ff! [D,D]2 [_B,,_B,]2 [G,,G,]2 [A,,A,]2 | %117
[K:treble] !>![F,_B,DF] z z2 z4 | !>![F,_B,DF] z z2 z4 | [^G,E^G] z [_B,D_B] z z2 [G,EG] z | %120
 z2 !>![_B,D_B] z z2 !>![^G,E^G] z | z8 | z8 |[K:bass]!f! z z z2 z2 [^F,,,^F,,]2 | %124
 [G,,,G,,]2 [^F,,,^F,,]2 [G,,,G,,]2 [A,,,=A,,]2 | %125
[K:treble] [_B,_G] z z [^C^F^A^c] z [D=GBd] z [E^GBe] | %126
 z .[EA^ce] z .[F_Bdf] z .[^F=B^d^f] z .[A=c=fa] | z .[Ad^fa] z .[Be^gb] z .[c=fac'] z2 | z8 | z8 | %130
 z8 | z8 |!ff! ^C2 A,2 ^F,2 ^G,2 | A,6 (([A,B,]>.[A,^C])) | [A,D]2 [A,^C]2 [A,B,D]2 [A,C=E]2 | %135
 [_B,DF]2 (([B,B,D]>.[B,C_E])) [B,DF]2 [B,^D^F]2 | [CEG]2 [G,CE]2 [G,A,C]2 [G,CD]2 | %137
 [G,CE]6 (([CDF]>.[CEG])) | [CF_A]2 [CEG]2 [CFA]2 (([_GG_B]>.[GAc])) | %139
 [_G_B_d]2 [G_Ac]2 [GBd]2 z[K:bass]!ff! .[G,=G] | z .[E,E] z .[^D,^D] z .[E,E] z .[G,G] | %141
 z .[=D,=D] z .[^C,^C] z .[D,D] z .[^D,^D] | [E,E] z!f!!f! [F,CF]2 [^G,B,E]2 [F,CF]2 | %143
 [^G,B,E]2 z2 z4 | [G,_B,]2 [D,_G,_C]2 [=G,B,]2 [D,_G,C]2 | [G,_B,]2 z2 z4 | %146
 z!ff!!ff! [F,,F,] z [_B,,,_B,,] z [F,,F,] z [B,,,B,,] | %147
 z [F,,F,] z [_B,,,_B,,] z [F,,F,] z [B,,,B,,] | z [F,,F,] z [_B,,,_B,,] z [F,,F,] z [B,,,B,,] | %149
 z [F,,F,] z [_B,,,_B,,] z [F,,F,] z [B,,,B,,] |[K:treble] ._a.f !>!c'2 .a.f !>!d2 | %151
 ._a.f !>!c'2 .a.f !>!d2 | !>!c2 .^c.d _e2 g2 | !>!c2 .^c.d _e2 g2 | %154
[K:bass]!ff! !>![D,,D,] z z2 z4 | !>![D,D] z z2 z4 | !>![D,D] z z2 z4 | .[_E,C] z z2 z4 | %158
 .[D,D] z z2 .[D,_E,] z .[D,F,] z | .[D^F] z .D z z2 !>![=F,_B,D] z | %160
 z2 !>![D,_B,] z z2 !>![A,,D,A,] z | z2 [C,F,A,] z z2 [D,_B,] z |[K:treble]!ff! [_E_e]6 [Ee]2 | %163
 [_E_e]6 [Ee]2 | [_E_e]2 [Ee]2 [Ee]2 [Ee]2 | [_E_e]2 [Ee]2 [Ee]2 [Ee]2 | !>![^C^c]4 !>![Ee]4 | %167
 !>![Ee]4 !>![EG]4 | [A,A]4 =c4- | c2 B2 c2 A2 | z2 _d4 c2 | _d2 _B2 c2 G2 | %172
[K:bass]!fff!!fff! [D,,A,,]6 [_B,,,F,,]2 | [_E,,_B,,]2 [F,,A,,]2 [G,,,G,,]2 [_B,,,F,,]2 | %174
 [C,,G,,]4 E,,2 [C,,G,,]2 | [_A,,C,]2 [_G,,_D,]2 [A,,C,]2 [_B,,,_B,,]2 | [D,,A,,]6 [_B,,,F,,]2 | %177
 [_E,,_B,,]2 [F,,A,,]2 [G,,,G,,]2 [_B,,,F,,]2 | [C,,E,,]4 ^C,,2 [_B,,,E,,]2 | %179
 [A,,,A,,]2 [_E,,_B,,]2 [F,,A,,]2 [G,,,G,,]2 | [_B,,,F,,]4 [A,,,A,,]2 [=C,,_B,,]2 | %181
 [F,,A,,]4 F,,2 [F,,A,,]2 | [_E,,_B,,]4 [F,,A,,]2 [E,,B,,]2 | [D,,B,,]4 [_E,,G,,]2 [D,,B,,]2 | %184
 !>![^C,,G,,D,] z z2 z4 | z8 | z8 | z8 | z8 | z8 | z8 | z8 | z8 | z8 | z8 | z8 | z8 | z8 | z8 | %199
 z8 | z8 | z8 | z8 | z8 | z8 | z8 | z8 | z8 | z8 | z8 | z8 | z8 | z8 | z8 | z8 | z8 | z8 | z8 | %218
 z8 | z8 | z8 | z8 ||[K:F]!f! .F,, z .B,, z z2 .C, z | .F,, z .B,, z z2 .C, z | %224
"^(a2)" .F,, z .B,, z .F,, z .B,, z | .F,, z .B,, z z2 .C, z | .G,, z z2 .C, z .C, z | %227
 .=D, z z2 .D, z .E, z |"^(a2)" .F, z .E, z .F, z .=E, z | .A, z .B, z .=G, z .C, z | %230
 .F,, z .B,, z z2 .C, z | .F,, z .B,, z z2 .C, z | .F,, z .B,, z .F,, z .B,, z | %233
 .F,, z .B,, z z2 .C, z | .F, z .D, z z ._E,.D,.C, | .B,, z .=D, z z ._D,.C,.=B,, | %236
 ._B,, z .G,, z ._D, z .=C, z | .B,, z .C, z .F,, z z2 | %238
 z!mf!!mf! [F,,C,] z [F,,C,] z [F,,C,] z [F,,C,] | z [F,,C,] z [F,,C,] z [F,,C,] z [F,,C,] | %240
 z [F,,C,] z [F,,C,] z [F,,_D,] z [F,,D,] | z [F,,_D,] z [F,,D,] z [F,,=D,] z [F,,_E,] | %242
 z [F,,C,] z [F,,C,] z [F,,C,] z [F,,C,] | z [F,,C,] z [F,,C,] z [F,,C,] z [_E,,C,] | %244
 z [D,,D,] z [D,,D,] z [B,,,B,,] z [B,,,B,,] | z [_E,,_E,] z [E,,E,] z [_A,,,_A,,] z [C,,C,] | %246
 [F,,F,]2 z2 z4 | z4 z2!f!!f! [B,,B,]2 | [A,,A,]2 [G,,G,]2 [F,,F,]2 [E,,E,]2 | %249
 [D,,D,]2 [C,,C,]2 [B,,,B,,]2 [C,,E,,A,,]2 | [F,,F,]2 (([E,,E,]>.[F,,F,])) [D,,D,]2 [B,,B,]2 | %251
 [A,,A,]2 [G,,G,]2 [C,C]2 [B,,B,]2 | [A,,A,]2 [G,,G,]2 [F,,F,]2 [E,,E,]2 | %253
 [D,,D,]2 [C,,C,]2 [B,,,B,,]2 !>![C,,E,,A,,] z |[K:treble] z!f! .[C_A] z .[CA] z .[CA] z .[CA] | %255
 z .[C_A] z .[CA] z .[CA] z .[CA] | z .[_EB] z .[EB] z .[EB] z .[EB] | %257
 z .[_EB] z [EB] z .[EB] _e/f/_g/_a/ |!ff!!ff! [cf=a] z z2[K:bass] z2 C, z | %259
 [C,F,A,] z z2 z2 C, z | [C,F,A,] z C, z [C,F,A,] z C, z | [C,F,A,] z C, z [C,F,A,] z C, z | %262
 [C,F,A,] z E,z/F,/ D, z B, z | .[A,,A,] z .[G,,G,] z .[F,,F,] z .[E,,E,] z | %264
 .[D,,D,] z .[C,,C,] z .[B,,,B,,] z .[A,,,A,,] z | .[G,,,G,,] z .[C,,C,] z .[F,,,F,,] z z2 |] %266
V:6
 x8 | x8 | x8 | x8 | x8 | x8 | x8 | x8 | x8 | x8 | x8 | x8 | x8 | x8 | x8 | x8 | x8 | x8 | x8 | %19
 x8 | x8 | x8 | x8 | x8 | x8 | x8 | x8 | x8 | x8 | x8 | x8 | x8 | x8 | x8 | x8 | x8 | x8 | x8 | %38
 x8 | x8 | x6 _A,,2 | x8 | x8 | x8 | x8 | x8 | x8 | x8 | x8 | x8 | x8 | x8 | x8 | x8 | x8 | x8 | %56
 x8 | x8 | x8 | x8 | x8 | x8 | x8 | x8 | x8 | x8 | x8 | x8 | x8 | x8 | x8 | x8 | x8 | x8 | x8 | %75
 x8 | x8 | x8 | x8 | x8 | x8 | x8 | x8 | x8 | x8 | x8 | x8 |[K:C] x8 | x8 | x8 | x8 | x8 | x8 | %93
 x8 | x8 | x8 | x8 | x8 | x8 | x8 | x8 | x8 | x8 | x8 | x8 | x8 | x8 | x8 | x8 | x8 | x8 | %111
!8va(! x8 | x!8va)! x7 | x8 | x8 | x8 | x8 |[K:treble] x8 | x8 | x8 | x8 | x8 | x8 |[K:bass] x8 | %124
 x8 |[K:treble] x8 | x8 | x8 | x8 | x8 | x8 | x8 | x8 | x8 | x8 | x8 | x8 | x8 | x8 | %139
 x7[K:bass] x | x8 | x8 | x8 | x8 | x8 | x8 | x8 | x8 | x8 | x8 |[K:treble] x8 | x8 | x8 | x8 | %154
[K:bass] x8 | x8 | x8 | x8 | x8 | x8 | x8 | x8 |[K:treble] x8 | x8 | x8 | x8 | x8 | x8 | x8 | x8 | %170
 x8 | x8 |[K:bass] x8 | x8 | x8 | x8 | x8 | x8 | x8 | x8 | x8 | x8 | x8 | x8 | x8 | x8 | x8 | x8 | %188
 x8 | x8 | x8 | x8 | x8 | x8 | x8 | x8 | x8 | x8 | x8 | x8 | x8 | x8 | x8 | x8 | x8 | x8 | x8 | %207
 x8 | x8 | x8 | x8 | x8 | x8 | x8 | x8 | x8 | x8 | x8 | x8 | x8 | x8 | x8 ||[K:F] x8 | x8 | x8 | %225
 x8 | x8 | x8 | x8 | x8 | x8 | x8 | x8 | x8 | x8 | x8 | x8 | x8 | x8 | x8 | x8 | x8 | x8 | x8 | %244
 x8 | x8 | x8 | x8 | x8 | x8 | x8 | x8 | x8 | x8 |[K:treble] x8 | x8 | x8 | x8 | x4[K:bass] x4 | %259
 x8 | x8 | x8 | x8 | x8 | x8 | x8 |] %266
V:7
 x8 | x8 | x8 | x8 | x8 | x8 | x8 | x8 | x8 | x8 | x8 | x8 | x8 | x8 | x8 | x8 | x8 | x8 | x8 | %19
 x8 | x8 | x8 | x8 | x8 | x8 | x8 | x8 | x8 | x8 | x8 | x8 | x8 | x8 | x8 | x8 | x8 | x8 | x8 | %38
 x8 | x8 | x8 | x8 | x8 | x8 | x8 | x8 | x8 | x8 | x8 | x8 | x8 | x8 | x8 | x8 | x8 | x8 | x8 | %57
 x8 | x8 | x8 | x8 | x8 | x8 | x8 | x8 | x8 | x8 | x8 | x8 | x8 | x8 | x8 | x8 | x8 | x8 | x8 | %76
 x8 | x8 | x8 | x8 | x8 | x8 | x8 | x8 | x8 | x8 | x8 |[K:C] x8 | x8 | x8 | x8 | x8 | x8 | %93
!8va(! x8 | x8 | x8 | x8 | x8 | x8 | x8 | x8 | x8 | x8!8va)! | x8 | x8 | x8 | x8 | x8 | x8 | x8 | %110
 x8 | x8 | x8 | x8 | x8 | x8 | x8 | x6!8va(! x2 | x8 | x8 | x8!8va)! | x8 | x8 | %123
 [^A,^C^F^A^c^f^a] z z2 z2 [_G,_G]2 | x8 | x3!8va(! x5 | x8 | x8!8va)! | x8 | x8 | x8 | x8 | x8 | %133
 x8 | x8 | x8 | x8 | x8 | x8 | x8 | x8 | x8 | x8 | x8 | x8 | x8 | x8 | x8 | x8 | x8 |!8va(! x8 | %151
 x8 | x8 | x8!8va)! | x8 | x8 | x8 | x8 | x8 | x8 | x8 | x8 | x8 | x8 | x8 | x8 | x8 | x8 | x8 | %169
 x8 | x8 | x8 |!8va(! x8 | x8 | x8!8va)! |!8va(! x8 | x8 | x8 | x8 | x8 | x8 | x8 | x8 | x8 | %184
 x4!8va)! x4 | x8 | x8 | x8 | x8 | x8 | x8 | x8 | x8 | x8 | x8 | x8 | x8 | x8 | x8 | x8 | x8 | x8 | %202
 x8 | x8 | x8 | x8 | x8 | x8 | x8 | x8 | x8 | x8 | x8 | x8 | x8 | x8 | x8 | x8 | x8 | x8 | x8 | %221
 x8 ||[K:F] x8 | x8 | x8 | x8 | x8 | x8 | x8 | x8 | x8 | x8 | x8 | x8 | x8 | x8 | x8 | x8 | x8 | %239
 x8 | x8 | x8 | x8 | x8 | x8 | x8 | x8 | x8 | x8 | x8 | x8 | x8 | x8 | x8 | x8 | x8 | x8 | %257
 x6!8va(! x2 | x!8va)! x7 | x8 | x8 | x8 | x8 | x8 | x8 | x8 |] %266

